!!!!SEGMENT: pl-wtm--r-730-37-m_moniuszko-stanislaw--cisza-morska.krn
!!!cenid: 18xx:1717
!!!COM: Moniuszko, Stanisław
!!!COM-rismID: pe30008351
!!!CDT: 1819/05/05-1872/06/04
!!!CNT: Polish
!!!OTL: Cisza morska
!!!PDT:
!!!AGN: Secular
!!!SMS-siglum: PL-Wtm
!!!SMS-shelfmark: R 730/37/M
!!!SMS-shelfwork: W
!!!SMS-variant:
!!!SMS-altvar:
!!!NIFC-rismSourceID: 1001099883
!!!NIFC-islandoraID:
!!!URL-pdf-islandora:
!!!URL-scan:
!!!ONB-nifc: Skan 0041, R 730|37
!!!AIN: 3 empty
!!!key:
**kern	**kern	**dynam	**kern	**text
*part3	*part2	*part2	*part1	*part1
*staff3	*staff2	*	*staff1	*staff1
*Iempty	*Iempty	*	*Iempty	*
*I"	*I"	*	*I"	*
*clefF4	*clefG2	*	*clefG2	*
*k[f#c#g#d#a#]	*k[f#c#g#d#a#]	*	*k[f#c#g#d#a#]	*
*B:	*B:	*	*B:	*
*M4/4	*M4/4	*	*M4/4	*
*met(c)	*met(c)	*	*met(c)	*
=1	=1	=1	=1	=1
!	!	!	!LO:TX:t=P:problem=all\right&colon; global	!
!	!	!	!LO:TX:t=P:znaki:global:problem=f# zamiast ff#, g# zamiast gg#	!
8BB/	8r	.	1ryy	.
.	(>16qqdd#/LL	.	.	.
.	16qqff#/JJ	.	.	.
(8d#\L 8B\ 8F#\	8bb\L)	.	.	.
.	(16qqgg#/LL	.	.	.
.	16qqee/JJ	.	.	.
[8e\ 8B\ 8G#\	8cc#\)	.	.	.
.	(>16qqa#/LL	.	.	.
.	16qqcc#/JJ	.	.	.
8e\]J 8c#\ 8F#\)	8ff#\J)	.	.	.
.	(16qqdd#/LL	.	.	.
.	16qqb/JJ	.	.	.
8BB/	8f#/)	.	.	.
.	(>16qqd#/LL	.	.	.
.	16qqf#/JJ	.	.	.
([>8B\L (>8F#\ 8D#\	8b\L)	.	.	.
.	(16qqg#/LL	.	.	.
.	16qqe/JJ	.	.	.
8B\]J 8G#\) 8E\)	8c#\)	.	.	.
.	(16qqA#X/LL	.	.	.
.	16qqc#/JJ	.	.	.
8E/ 8C#/ 8FF#/	8f#\J)	.	.	.
=2	=2	=2	=2	=2
1ryy	1ryy	.	2r	.
.	.	.	4r	.
.	.	.	8r	.
.	.	.	8f#/	Już
=3	=3	=3	=3	=3
1ryy	1ryy	.	8.f#/	wstąż-
.	.	.	16f#/	-kę
.	.	.	16g#/LL	pa-
.	.	.	16a#/JJ	.
.	.	.	16b/LL	-wi-
.	.	.	16cc#/JJ	.
.	.	.	(4dd#\	-lo-
.	.	.	8ee\)	.
.	.	.	8dd#\	-nu
=4	=4	=4	=4	=4
1ryy	1ryy	.	8dd#\	wiatr
.	.	.	16cc#\LL	za-
.	.	.	16b\JJ	.
.	.	.	8b/	-le-
.	.	.	16a#/LL	-dwie
.	.	.	16g#/JJ	.
.	.	.	4g#/	mu-
.	.	.	8f#/	-śnie,
.	.	.	8f#/	ci-
!!LO:LB:g=original
=5	=5	=5	=5	=5
1ryy	1ryy	.	8.f#/	-ché-
.	.	.	16f#/	-mi
.	.	.	16g#/LL	gra
.	.	.	16a#/JJ	.
.	.	.	16b\LL	pier-
.	.	.	16cc#\JJ	.
.	.	.	(4dd#\	-sia-
.	.	.	8cc#\)	.
.	.	.	8b\	-mi
=6	=6	=6	=6	=6
1ryy	1ryy	.	8a#/	roz-
.	.	.	16g#/LL	-ja-
.	.	.	16a#/JJ	.
.	.	.	8b/	-śnio-
.	.	.	8e#X/	-na
.	.	.	8g#/	wo-
.	.	.	8f#/	-da;
.	.	.	4r	.
=7	=7	=7	=7	=7
1ryy	1ryy	.	8.cc#\	jak
.	.	.	16cc#\	ma-
.	.	.	16b/LL	-rzą-
.	.	.	16a#/JJ	.
.	.	.	16g#/	-ca
.	.	.	16f#/	o
!	!	!	!LO:N:vis=16	!
!	!	!	!LO:TX:t=P:problem=mixed beam	!
.	.	.	8e#X/L	szczę-
!	!	!	!LO:N:vis=16	!
.	.	.	8dd#\J	.
.	.	.	4cc#\	-ściu
=8	=8	=8	=8	=8
1ryy	1ryy	.	8.cc#\	na-
.	.	.	16cc#\	-rze-
.	.	.	16b/LL	-czo-
.	.	.	16a#/JJ	.
.	.	.	16g#/LL	-na
.	.	.	16f#/JJ	.
.	.	.	8e#X/L	mło-
.	.	.	8g#/J	.
.	.	.	4c#/	-da
!!LO:LB:g=original
=9	=9	=9	=9	=9
1ryy	1ryy	.	8f#/	zbu-
.	.	.	16e#X/	-dzi
.	.	.	16f#/	się
.	.	.	16g#/LL	a-
.	.	.	16a#/JJ	.
.	.	.	16b\LL	-by
.	.	.	16cc#\JJ	.
.	.	.	(8dd#\	wes-
.	.	.	4ff#\)	.
!	!	!	!LO:SIC:v:s=16ee#	!
.	.	.	16ee\LL	-tchnąć
.	.	.	16dd#\JJ	.
=10	=10	=10	=10	=10
1ryy	1ryy	.	8dd#\	i
.	.	.	16cc#\LL	wnet
.	.	.	16b\JJ	.
.	.	.	8a#/	zno-
.	.	.	16g#/LL	-wu
.	.	.	16f#/JJ	.
.	.	.	8cc#\	u-
.	.	.	8b\	-śnie.
.	.	.	4r	.
=11	=11	=11	=11	=11
1ryy	1ryy	.	1r	.
=12	=12	=12	=12	=12
1ryy	1ryy	.	8.f#/	Ża-
.	.	.	16f#/	-gle
.	.	.	16g#/LL	na
.	.	.	16a#/JJ	.
.	.	.	16b/	kształt
.	.	.	16cc#/	cho-
.	.	.	4dd#\	-rą-
.	.	.	8f#/	-gwi
.	.	.	8dd#\	gdy
!!LO:PB:g=original
=13	=13	=13	=13	=13
1ryy	1ryy	.	8dd#\L	woj-
.	.	.	16cc#\L	.
.	.	.	16b\JJ	.
.	.	.	8b\	-nę
.	.	.	16a#/LL	skoń-
.	.	.	16g#/JJ	.
.	.	.	4g#/	-czo-
.	.	.	8f#/	-no,
.	.	.	8r	.
=14	=14	=14	=14	=14
1ryy	1ryy	.	8f#/	drzé-
!	!	!	!LO:TX:t=P:problem=16f# poprawione na 16e#	!
.	.	.	16e#X/	-mią
.	.	.	16f#/	na
.	.	.	16g#/LL	masz-
.	.	.	16a#/JJ	.
.	.	.	16b\LL	-tach
.	.	.	16cc#\JJ	.
.	.	.	(4dd#\	na-
.	.	.	8cc#\)	.
.	.	.	8b\	-gich;
=15	=15	=15	=15	=15
!	!LO:TX:t=P:problem=mixed beam	!	!	!
4r	8ff#:\L 8cc#:\ 8a#:\ 8f#':\	.	8a#/	o-
.	8f#/J 8c#/ 8A#^/	.	16g#/LL	-kręt
.	.	.	16a#/JJ	.
8e#X\:L 8B\: 8G#\: 8C##X':\	4r	.	8b/	lek-
!LO:SIC:v:n=3:s=8	!	!	!	!
8B\J 8G#\ 8E\ 8C##^\	.	.	8e#X/	-kim
!	!LO:TX:t=P::problem=wykreślony akord&colon; c-e-g-cc	!	!	!
4r	8dd#/:L 8a#/: 8fn/: 8d#':/	.	4g#/	ru-
!	!LO:TX:t=P:problem=wykreślone 8c	!	!	!
.	8d#^/J	.	.	.
8A#\:L 8F#\: 8D#\: 8BB':\	4r	.	8f#/	-chem
8BB^\J	.	.	8f#/	ko-
=16	=16	=16	=16	=16
16FF#/LL	16A#/LL	.	8.cc#\	-ły-
!LO:TX:t=P:problem=16D poprawione na 16C	!	!	!	!
16C#/	16c#/	.	.	.
16F#/	16a#/	.	.	.
16C#/JJ	16c#/JJ	.	16cc#\	-sa
16FF#/LL	16A#/LL	.	16b/LL	się
16C#/	16c#/	.	16a#/JJ	.
16FF#/	16A#/	.	16g#/LL	jak
16C#/JJ	16c#/JJ	.	16f#/JJ	.
16FF#/LL	16B/LL	.	8e#X/L	gdy-
16C#/	16c#/	.	.	.
16E#X/	16g#/	.	8g#/J	.
16C#/JJ	16c#/JJ	.	.	.
!	!	!	!LO:TX:t=P:problem=4f# poprawione na 8c	!
16FF#/LL	16B/LL	.	8c#/	-by
16C#/	16c#/	.	.	.
16FF#/	16B/	.	16cc#\LL	przy-
16C#/JJ	16c#/JJ	.	16b\JJ	.
!!LO:LB:g=original
=17	=17	=17	=17	=17
1ryy	1ryy	.	4a#/	-ku-
.	.	.	16b/LL	-ty
.	.	.	16a#/JJ	.
.	.	.	16g#/LL	łań-
.	.	.	16f#/JJ	.
.	.	.	8e#X/L	-cu-
.	.	.	8g#/J	.
.	.	.	4c#/	-chem
=18	=18	=18	=18	=18
!LO:TX:t=P:problem=mixed beam	!	!	!	!
8FF#'/L	16A#/LL	.	8.f#/	maj-
.	16f#/JJ 16c#/ 16A#/	.	.	.
8F#'\	16r	.	.	.
.	16f#/ 16c#/ 16A#/	.	16f#/	-tek
8E'\	16r	.	16g#/LL	wy-
.	16a#/ 16f#/ 16c#/	.	16a#/JJ	.
8C#'\J	16r	.	16b\LL	-tchnął
.	16cc#/ 16a#/ 16f#/	.	16cc#\JJ	.
4BB/	16r	.	8dd#\	roz-
.	16f#/	.	.	.
.	(8ff#\L 8dd#\	>	4ff#\	-smia-
4r	8dd#\ 8b\)	]	.	.
.	8b\J 8g#'\	.	16ee\	-ło
.	.	.	16dd#\	się
=19	=19	=19	=19	=19
!	!	!	!LO:TX:t=P:problem=8dd poprawione na 8cc	!
4E\	4g#/ 4e/	.	8cc#\	po-
!	!	!	!LO:TX:t=P:problem=8cc poprawione na 16cc	!
.	.	.	16cc#/	-dróż-
!	!	!	!LO:TX:t=P:problem=8b poprawione na 16b	!
.	.	.	16b/	-ne
!LO:TX:t=P:problem=mixed beam	!	!	!	!
8F#\L	4a#/ 4e/	.	4a#Xt/	gro-
8FF#/J	.	.	.	.
2ryy	2ryy	.	8b/	-no
.	.	.	8r	.
.	.	.	4r	.
=	=	=	=	=
*-	*-	*-	*-	*-
!!!system-decoration: [(s1,s2,s3)]
!!!RDF**kern: > = above
!!!RDF**kern: < = below
!!!EED: Leszek Kubiak
!!!EEV: 2021-04-21
!!!ENC: Katarzyna Serwa
!!!END: 2021-04-01
!!!YEC: Copyright 2022 Narodowy Instytut Fryderyka Chopina (https://polishscores.org)
!!!YEM: Licence CC BY 4.0 (https://creativecommons.org/licenses/by/4.0)
